X:91
T:Steyrer Tanz in G, nr. 57
C:traditionell
R:Steirer
A:Hallstatt, Salzkammergut
B:Corpus Musicae Popularis Austriacae (COMPA), 5.Band: J.M.Schmalnauer " Tanz Musik", Verlag Boehlau, Wien 1996
S:manuscript des Johann Michael Schmalnauer um 1820
N:im der quelle in G
Z:abc transcription Simon Wascher
F:http://simonwascher.info/TradArchiv/
M:3/4
L:1/8
K:G
V:1
%violino 1mo
P:g:Ap:
adfa Td2 | bdgb Td2 | c'dac' d2 | d'dbd' g2 |\
adfa Td2 | bdgb Td2 | c'dac'df | g2 G4 :|
(ad)(fa).d.a | bdgbdb | c'dac'dc' | d'bgdBG |\
(ad)(fa).d.a | bdgbdb | c'dac'df | g2 G4 :|
V:2
%violino 2do
fAdf TA2 | gBdg TB2 | aAfa A2 | bBgb B2 |\
fAdf TA2 | gBdg TB2 | aAfadc | B4 x2 :|
(fA)(df).A.f | gBdgBg | acfaca |"ergaenzt" bgdBGB |\
(fA)(df).A.f | gBdgBg | acfaca |"ergaenzt" B4 x2 :|
